packages/core/assets/Icons/public.svg

<svg viewBox="0 0 20 20" fill="none" xmlns="http://www.w3.org/2000/svg">
<path d="M9.99984 18.3334C8.84706 18.3334 7.76373 18.1146 6.74984 17.6771C5.73595 17.2396 4.854 16.6459 4.104 15.8959C3.354 15.1459 2.76025 14.2639 2.32275 13.25C1.88525 12.2361 1.6665 11.1528 1.6665 10C1.6665 8.84724 1.88525 7.76391 2.32275 6.75002C2.76025 5.73613 3.354 4.85419 4.104 4.10419C4.854 3.35419 5.73595 2.76044 6.74984 2.32294C7.76373 1.88544 8.84706 1.66669 9.99984 1.66669C11.1526 1.66669 12.2359 1.88544 13.2498 2.32294C14.2637 2.76044 15.1457 3.35419 15.8957 4.10419C16.6457 4.85419 17.2394 5.73613 17.6769 6.75002C18.1144 7.76391 18.3332 8.84724 18.3332 10C18.3332 11.1528 18.1144 12.2361 17.6769 13.25C17.2394 14.2639 16.6457 15.1459 15.8957 15.8959C15.1457 16.6459 14.2637 17.2396 13.2498 17.6771C12.2359 18.1146 11.1526 18.3334 9.99984 18.3334ZM9.1665 16.625V15C8.70817 15 8.31581 14.8368 7.98942 14.5104C7.66303 14.184 7.49984 13.7917 7.49984 13.3334V12.5L3.49984 8.50002C3.45817 8.75002 3.41998 9.00002 3.38525 9.25002C3.35053 9.50002 3.33317 9.75002 3.33317 10C3.33317 11.6806 3.88525 13.1528 4.98942 14.4167C6.09359 15.6806 7.48595 16.4167 9.1665 16.625ZM14.9165 14.5C15.4859 13.875 15.92 13.1771 16.2186 12.4063C16.5172 11.6354 16.6665 10.8334 16.6665 10C16.6665 8.63891 16.288 7.39585 15.5311 6.27085C14.7741 5.14585 13.7637 4.33335 12.4998 3.83335V4.16669C12.4998 4.62502 12.3366 5.01738 12.0103 5.34377C11.6839 5.67016 11.2915 5.83335 10.8332 5.83335H9.1665V7.50002C9.1665 7.73613 9.08664 7.93405 8.92692 8.09377C8.7672 8.25349 8.56928 8.33335 8.33317 8.33335H6.6665V10H11.6665C11.9026 10 12.1005 10.0799 12.2603 10.2396C12.42 10.3993 12.4998 10.5972 12.4998 10.8334V13.3334H13.3332C13.6943 13.3334 14.0207 13.441 14.3123 13.6563C14.604 13.8715 14.8054 14.1528 14.9165 14.5Z" fill="currentColor"/>
</svg>

<svg xmlns="http://www.w3.org/2000/svg" width="20" height="20" fill="none" viewBox="0 0 20 20">
  <path fill="#201F1F" d="M10 18.333a8.115 8.115 0 0 1-3.25-.656 8.415 8.415 0 0 1-2.646-1.781 8.416 8.416 0 0 1-1.781-2.646A8.115 8.115 0 0 1 1.667 10c0-1.153.218-2.236.656-3.25a8.415 8.415 0 0 1 1.781-2.646A8.415 8.415 0 0 1 6.75 2.323 8.115 8.115 0 0 1 10 1.667c1.153 0 2.236.218 3.25.656a8.416 8.416 0 0 1 2.646 1.781 8.415 8.415 0 0 1 1.78 2.646 8.115 8.115 0 0 1 .657 3.25 8.115 8.115 0 0 1-.656 3.25 8.416 8.416 0 0 1-1.781 2.646 8.416 8.416 0 0 1-2.646 1.781 8.115 8.115 0 0 1-3.25.656Zm-.834-1.708V15c-.458 0-.85-.163-1.177-.49a1.605 1.605 0 0 1-.49-1.177V12.5l-4-4c-.04.25-.079.5-.114.75-.034.25-.052.5-.052.75 0 1.68.552 3.153 1.656 4.417 1.105 1.264 2.497 2 4.177 2.208Zm5.75-2.125a6.659 6.659 0 0 0 1.303-2.094c.298-.77.447-1.573.447-2.406a6.537 6.537 0 0 0-1.135-3.73A6.418 6.418 0 0 0 12.5 3.834v.334c0 .458-.163.85-.49 1.177-.326.326-.719.49-1.177.49H9.166V7.5c0 .236-.08.434-.24.594a.806.806 0 0 1-.593.24H6.666V10h5c.237 0 .434.08.594.24.16.16.24.357.24.593v2.5h.833c.361 0 .688.108.98.323.291.215.492.497.603.844Z"/>
</svg>
